X:1
Q:1/4=92
L:1/8
M:1/8
K:C clef=G2
V:1
%%MIDI program 52
D31/32|A-|A-|A31/32|
A31/32|^F-|^F31/32|D-|
D31/32|B-|B-|B-|
B31/32|z|z|z|
D31/32|d-|d-|d31/32|
d31/32|^c-|^c31/32|B-|
B31/32|B-|B31/32|A-|
A31/32|z|z|A-|
A31/32|^C-|^C-|^C31/32|
^C31/32|D-|D31/32|E-|
E31/32|^F-|^F31/32|^G-|
^G31/32|A-|A31/32|B-|
B31/32|A-|A-|A-|
A31/32|^G-|^G-|^G-|
^G31/32|A-|A-|A-|
A-|A-|A31/32|z|
A31/32|^c-|^c-|^c31/32|
^c31/32|B-|B31/32|A-|
A31/32|A-|A-|A31/32|
d31/32|d-|d31/32|^F-|
^F31/32|B-|B-|B31/32|
B31/32|B-|B31/32|B-|
B31/32|B-|B-|B-|
B31/32|^A-|^A31/32|z|
A31/32|A-|A31/32|^G-|
^G31/32|G-|G31/32|^F-|
^F31/32|B-|B31/32|d-|
d-|d31/32|d31/32|^c31/32|
B31/32|B-|B31/32|A-|
A-|A-|A31/32|^C-|
^C31/32|D-|D-|D-|
D-|D-|D31/32|z|
A31/32|^c-|^c-|^c31/32|
^c31/32|B-|B31/32|A-|
A31/32|A-|A-|A31/32|
d31/32|d-|d31/32|^F-|
^F31/32|B-|B-|B31/32|
B31/32|B-|B31/32|B-|
B31/32|B-|B-|B-|
B31/32|^A-|^A31/32|z|
A31/32|A-|A31/32|^G-|
^G31/32|G-|G31/32|^F-|
^F31/32|B-|B31/32|d-|
d-|d31/32|d31/32|^c31/32|
B31/32|B-|B31/32|A-|
A-|A-|A31/32|^C-|
^C31/32|D-|D-|D-|
D-|D-|D31/32
L:1/8
M:1/8
K:C clef=G2
V:2
%%MIDI program 0
D15/16|[D-A-]|[D-A-]|[DA]7/8z/8|
[DA]15/16|[D-^F-]|[D^F]7/8z/8|D-|
D7/8z/8|[D-G-B-]|[D-G-B-]|[D-G-B-]|
[DGB]3/4z/4|z|z|z|
D15/16|[D-G-d-]|[D-G-d-]|[DGd]7/8z/8|
[DGd]15/16|[D-G-^c-]|[DG^c]7/8z/8|[D-G-B-]|
[DGB]7/8z/8|[D-G-B-]|[DGB]7/8z/8|[D-^F-A-]|
[D^FA]7/8z/8|z|z|[A,-A-]|
[A,A]7/8z/8|[A,-^C-]|[A,-^C-]|[A,^C]7/8z/8|
[A,^C]15/16|[A,-D-]|[A,D]7/8z/8|[A,-E-]|
[A,E]7/8z/8|[A,-D-^F-]|[A,D^F]7/8z/8|[B,-E-^G-]|
[B,E^G]7/8z/8|[A,-E-A-]|[A,EA]7/8z/8|[D-^F-B-]|
[D^FB]7/8z/8|[^C-E-A-]|[^C-E-A-]|[^C-E-A-]|
[^CEA]3/4z/4|[D-E-^G-]|[D-E-^G-]|[D-E-^G-]|
[DE^G]3/4z/4|[^C-E-A-]|[^C-E-A-]|[^C-E-A-]|
[^C-E-A-]|[^C-E-A-]|[^CEA]3/4z/4|z|
A15/16|[E-G-^c-]|[E-G-^c-]|[EG^c]7/8z/8|
[EG^c]15/16|[D-G-B-]|[DGB]7/8z/8|[^C-G-A-]|
[^CGA]7/8z/8|[D-G-A-]|[D-G-A-]|[DGA]31/32|
[D-^Fd]15/16|[^F-d-D-]|[^FdD]7/8z/8|[^A,-E-^F-]|
[^A,E^F]7/8z/8|[B,-D-^F-B-]|[B,-D-^F-B-]|[B,D^FB]7/8z/8|
[B,^D^FB]15/16|[B,-E-B-]|[B,EB]7/8z/8|[B,-F-B-]|
[B,FB]7/8z/8|[^C-^F-B-]|[^C-^F-B-]|[^C-^F-B-]|
[^C^FB]31/32|[^C-^F-^A-]|[^C^F^A]7/8z/8|z|
[C^FA]15/16|[B,-^F-A-]|[B,^FA]7/8z/8|[B,-E-^G-]|
[B,E^G]7/8z/8|[A,-E-G-]|[A,EG]7/8z/8|[A,-D-^F-]|
[A,D^F]7/8z/8|[B,-D-G-B-]|[B,DGB]31/32|[D-F-B-d-]|
[D-F-B-d-]|[DFBd]15/16|[DFBd]15/16|[^CF^c]15/16|
[DFB]15/16|[D-^F-B-]|[D^FB]31/32|[D-^F-A-]|
[D-^F-A-]|[D-^F-A-]|[D^FA]3/4[D^F]31/128|[G,-A,-^C-]|
[G,A,^C]7/8z/8|[^F,-A,-D-]|[^F,-A,-D-]|[^F,-A,-D-]|
[^F,-A,-D-]|[^F,-A,-D-]|[^F,A,D]3/4z/4|z|
A15/16|[E-G-^c-]|[E-G-^c-]|[EG^c]7/8z/8|
[EG^c]15/16|[D-G-B-]|[DGB]7/8z/8|[^C-G-A-]|
[^CGA]7/8z/8|[D-G-A-]|[D-G-A-]|[DGA]31/32|
[D-^Fd]15/16|[^F-d-D-]|[^FdD]7/8z/8|[^A,-E-^F-]|
[^A,E^F]7/8z/8|[B,-D-^F-B-]|[B,-D-^F-B-]|[B,D^FB]7/8z/8|
[B,^D^FB]15/16|[B,-E-B-]|[B,EB]7/8z/8|[B,-F-B-]|
[B,FB]7/8z/8|[^C-^F-B-]|[^C-^F-B-]|[^C-^F-B-]|
[^C^FB]31/32|[^C-^F-^A-]|[^C^F^A]7/8z/8|z|
[C^FA]15/16|[B,-^F-A-]|[B,^FA]7/8z/8|[B,-E-^G-]|
[B,E^G]7/8z/8|[A,-E-G-]|[A,EG]7/8z/8|[A,-D-^F-]|
[A,D^F]7/8z/8|[B,-D-G-B-]|[B,DGB]31/32|[D-F-B-d-]|
[D-F-B-d-]|[DFBd]15/16|[DFBd]15/16|[^CF^c]15/16|
[DFB]15/16|[D-^F-B-]|[D^FB]31/32|[D-^F-A-]|
[D-^F-A-]|[D-^F-A-]|[D^FA]3/4[D^F]31/128|[G,-A,-^C-]|
[G,A,^C]7/8z/8|[^F,-A,-D-]|[^F,-A,-D-]|[^F,-A,-D-]|
[^F,-A,-D-]|[^F,-A,-D-]|[^F,A,D]3/4(5:3z/2
L:1/8
M:1/8
K:C clef=F4
V:3
%%MIDI program 0
D,15/16|[D,-^F,-]|[D,-^F,-]|[D,^F,]7/8z/8|
[D,^F,]15/16|[D,-A,-]|[D,A,]7/8z/8|[D,-^F,-]|
[D,^F,]7/8z/8|[G,,-G,-]|[G,,-G,-]|[G,,-G,-]|
[G,,G,]3/4z/4|z|z|z|
D,15/16|[B,,-B,-]|[B,,-B,-]|[B,,B,]7/8z/8|
[B,,B,]15/16|[A,,-A,-]|[A,,A,]7/8z/8|[G,,-G,-]|
[G,,G,]7/8z/8|D,-|D,7/8z/8|D,-|
D,7/8z/8|z|z|[D,-^F,-]|
[D,^F,]7/8z/8|[G,,-G,-]|[G,,-G,-]|[G,,G,]7/8z/8|
[G,,G,]15/16|[^F,,-^F,-]|[^F,,^F,]7/8z/8|[^C,,-^C,-]|
[^C,,^C,]7/8z/8|[D,,-D,-]|[D,,D,]7/8z/8|[D,,-D,-]|
[D,,D,]7/8z/8|[^C,,-^C,-]|[^C,,^C,]7/8z/8|[D,,-D,-]|
[D,,D,]7/8z/8|[E,,-E,-]|[E,,-E,-]|[E,,-E,-]|
[E,,E,]3/4z/4|[E,,-E,-]|[E,,-E,-]|[E,,-E,-]|
[E,,E,]3/4z/4|[A,,,-A,,-]|[A,,,-A,,-]|[A,,,-A,,-]|
[A,,,-A,,-]|[A,,,-A,,-]|[A,,,A,,]3/4z/4|z|
z|[A,,,-A,,-]|[A,,,-A,,-]|[A,,,-A,,-]|
[A,,,-A,,-]|[A,,,-A,,-]|[A,,,A,,]3/4z/4|[A,,,-A,,-]|
[A,,,A,,]7/8z/8|[D,,-D,-]|[D,,-D,-]|[D,,-D,-]|
[D,,-D,-]|[D,,-D,-]|[D,,D,]3/4z/4|[^C,,-^C,-]|
[^C,,^C,]7/8z/8|[B,,,-B,,-]|[B,,,-B,,-]|[B,,,B,,]7/8z/8|
[A,,,A,,]15/16|[G,,,-G,,-]|[G,,,G,,]7/8z/8|[G,,,-G,,-]|
[G,,,G,,]7/8z/8|[^F,,,-^F,,-]|[^F,,,-^F,,-]|[^F,,,-^F,,-]|
[^F,,,^F,,]31/32|[^F,,-^F,-]|[^F,,^F,]7/8z/8|z|
[E,,E,]15/16|[^D,,-^D,-]|[^D,,^D,]7/8z/8|[E,,-E,-]|
[E,,E,]7/8z/8|[^C,,-^C,-]|[^C,,^C,]7/8z/8|[D,,-D,-]|
[D,,D,]7/8z/8|[G,,,-G,,-]|[G,,,G,,]31/32|[^G,,,-^G,,-]|
[^G,,,-^G,,-]|[^G,,,^G,,]15/16|[^G,,,^G,,]15/16|[^G,,,^G,,]15/16|
[^G,,,^G,,]15/16|[A,,,-A,,-]|[A,,,-A,,-]|[A,,,-A,,-]|
[A,,,A,,]3/4z/4|[A,,,-A,,-]|[A,,,A,,]7/8z/8|[A,,,-A,,-]|
[A,,,A,,]7/8z/8|[D,,-D,-]|[D,,-D,-]|[D,,-D,-]|
[D,,-D,-]|[D,,-D,-]|[D,,D,]3/4z/4|z|
z|[A,,,-A,,-]|[A,,,-A,,-]|[A,,,-A,,-]|
[A,,,-A,,-]|[A,,,-A,,-]|[A,,,A,,]3/4z/4|[A,,,-A,,-]|
[A,,,A,,]7/8z/8|[D,,-D,-]|[D,,-D,-]|[D,,-D,-]|
[D,,-D,-]|[D,,-D,-]|[D,,D,]3/4z/4|[^C,,-^C,-]|
[^C,,^C,]7/8z/8|[B,,,-B,,-]|[B,,,-B,,-]|[B,,,B,,]7/8z/8|
[A,,,A,,]15/16|[G,,,-G,,-]|[G,,,G,,]7/8z/8|[G,,,-G,,-]|
[G,,,G,,]7/8z/8|[^F,,,-^F,,-]|[^F,,,-^F,,-]|[^F,,,-^F,,-]|
[^F,,,^F,,]31/32|[^F,,-^F,-]|[^F,,^F,]7/8z/8|z|
[E,,E,]15/16|[^D,,-^D,-]|[^D,,^D,]7/8z/8|[E,,-E,-]|
[E,,E,]7/8z/8|[^C,,-^C,-]|[^C,,^C,]7/8z/8|[D,,-D,-]|
[D,,D,]7/8z/8|[G,,,-G,,-]|[G,,,G,,]31/32|[^G,,,-^G,,-]|
[^G,,,-^G,,-]|[^G,,,^G,,]15/16|[^G,,,^G,,]15/16|[^G,,,^G,,]15/16|
[^G,,,^G,,]15/16|[A,,,-A,,-]|[A,,,-A,,-]|[A,,,-A,,-]|
[A,,,A,,]3/4z/4|[A,,,-A,,-]|[A,,,A,,]7/8z/8|[A,,,-A,,-]|
[A,,,A,,]7/8z/8|[D,,-D,-]|[D,,-D,-]|[D,,-D,-]|
[D,,-D,-]|[D,,-D,-]|[D,,D,]3/4(5:3z/2


